X:143 
T:Mullin's Favorite (reel)
F:file ID: cre.5/143mull_f
B:CRE5.174 (Rogha UÃÂÃÂÃÂÃÂ­ MhaolÃÂÃÂÃÂÃÂ¡in)
M:4/4
Q:180
R:reel
K:G
G/E/|DEGA B2AB|B2AB GED2|EAAG A2EA|A2BG AGEG|
DEGA B2AB|B2AB GED2|Be~e2 dBge|dBAB G3:|
B|dggf g2dg|g2fg e2d2|eaag a2ea|a2ga e2d2|
eggf g2dg|g2fg e2dB|Be~e2 dBge|dBAB G3:|

%%%

